!!!SOCIAL_FUNCTION:	songs connected with legends
!!!PDT:	1929
!!!OTL: No_1_Song_of_Coyote_After_the_Flood.krn
!!!REG: Southwest
!!!LANG: Non-Tone
!!!LING_GROUP: Uto-Aztecan
**kern
*staff1
=1-
*clefF4
*k[b-e-a-d-]
*M3/8
8r
8E-\L
8E-\J
=2
4c\
8A-\
=3||
*M2/8
8.B-\L
16A-\Jk
=4
16B-\LL
16A-\
16A-\
16F\JJ
=5||
*M3/8
16F\LL
16F\J
8F\
8F\J
=6
4F\
16C/LL
16C/JJ
=7||
*M2/8
8.F/L
16C/Jk
=8||
*M3/8
4F\
8r
=9||
*M2/8
8F\L
8F\J
=10||
*M3/8
4c\
8A-\
=11||
*M2/8
8.A-\L
16G\Jk
=12
16A-\LL
16G\
16G\
16F\JJ
=13||
*M3/8
16F\LL
16F\J
8F\
8F\J
=14
4F\
16C/LL
16C/JJ
=15||
*M2/8
4F\
=16||
*M3/8
4F\
8r
=17!|:
*M2/8
8.A-\L
16G\Jk
=18||
*M3/8
8A-\L
8A-\
8A-\J
=19||
*M2/8
4A-\
=20||
*M3/8
4A-\
8A-\
=21||
*M2/8
8.G\L
16F\Jk
=22
8.G\L
16F\Jk
=23||
*M3/8
4F\
16C/
16r
=24||
*M2/8
8.G\L
16F\Jk
=25||
*M3/8
4F\
8D-\
=26||
*M2/8
8.F\L
16D-\Jk
=27||
*M3/8
4F\
16C/
16r
==:|!
*-
